polaris-icons/icons/new-icons/AccessibilityMajor.svg

<svg width="20" height="20" viewBox="0 0 20 20" fill="none" xmlns="http://www.w3.org/2000/svg">
<path d="M4.77896 9.16549C4.55757 9.61808 4.5 9.91816 4.5 10C4.5 10.0818 4.55757 10.3819 4.77896 10.8345C4.98809 11.262 5.31225 11.7605 5.76168 12.2332C6.65224 13.1699 8.02612 14 10 14C10.4142 14 10.75 14.3358 10.75 14.75C10.75 15.1642 10.4142 15.5 10 15.5C7.5556 15.5 5.80448 14.4551 4.67461 13.2668C4.11382 12.677 3.70392 12.0505 3.43153 11.4936C3.1714 10.9618 3 10.4182 3 10C3 9.58184 3.1714 9.03816 3.43153 8.50638C3.70392 7.94953 4.11382 7.32302 4.67461 6.73321C5.80448 5.54486 7.5556 4.5 10 4.5C12.4322 4.5 14.1197 5.47224 15.224 6.60034C16.3073 7.7069 16.8244 8.9552 16.9776 9.5681C17.0781 9.96994 16.8337 10.3771 16.4319 10.4776C16.0301 10.5781 15.6229 10.3337 15.5224 9.9319C15.4256 9.5448 15.0268 8.5431 14.1522 7.64966C13.2986 6.77776 11.9861 6 10 6C8.02612 6 6.65224 6.83014 5.76168 7.76679C5.31225 8.23948 4.98809 8.73797 4.77896 9.16549Z" fill="#4A4A4A"/>
<path fill-rule="evenodd" clip-rule="evenodd" d="M10 13C11.6569 13 13 11.6569 13 10C13 8.34315 11.6569 7 10 7C8.34315 7 7 8.34315 7 10C7 11.6569 8.34315 13 10 13ZM10 11.5C10.8284 11.5 11.5 10.8284 11.5 10C11.5 9.17157 10.8284 8.5 10 8.5C9.17157 8.5 8.5 9.17157 8.5 10C8.5 10.8284 9.17157 11.5 10 11.5Z" fill="#4A4A4A"/>
<path d="M18.2803 12.7803C18.5732 12.4874 18.5732 12.0126 18.2803 11.7197C17.9874 11.4268 17.5126 11.4268 17.2197 11.7197L14.25 14.6893L13.0303 13.4697C12.7374 13.1768 12.2626 13.1768 11.9697 13.4697C11.6768 13.7626 11.6768 14.2374 11.9697 14.5303L13.7197 16.2803C14.0126 16.5732 14.4874 16.5732 14.7803 16.2803L18.2803 12.7803Z" fill="#4A4A4A"/>
</svg>

<svg viewBox="0 0 20 20" xmlns="http://www.w3.org/2000/svg"><path d="M4.779 9.165c-.221.453-.279.753-.279.835 0 .082.058.382.279.835.21.427.533.925.983 1.398.89.937 2.264 1.767 4.238 1.767a.75.75 0 0 1 0 1.5c-2.444 0-4.196-1.045-5.325-2.233a7.204 7.204 0 0 1-1.243-1.773c-.26-.532-.432-1.076-.432-1.494 0-.418.171-.962.432-1.494a7.205 7.205 0 0 1 1.243-1.773c1.13-1.188 2.88-2.233 5.325-2.233 2.432 0 4.12.972 5.224 2.1 1.083 1.107 1.6 2.355 1.754 2.968a.75.75 0 0 1-1.456.364c-.096-.387-.495-1.389-1.37-2.282-.853-.872-2.166-1.65-4.152-1.65-1.974 0-3.348.83-4.238 1.767-.45.472-.774.971-.983 1.398Z" fill="#5C5F62"/><path fill-rule="evenodd" d="M10 13a3 3 0 1 0 0-6 3 3 0 0 0 0 6Zm0-1.5a1.5 1.5 0 1 0 0-3 1.5 1.5 0 0 0 0 3Z" fill="#5C5F62"/><path d="M18.28 12.78a.75.75 0 1 0-1.06-1.06l-2.97 2.97-1.22-1.22a.75.75 0 1 0-1.06 1.06l1.75 1.75a.75.75 0 0 0 1.06 0l3.5-3.5Z" fill="#5C5F62"/></svg>
